svgs/hungerstation.svg

<svg width="192" height="192" viewBox="0 0 192 192" fill="none" xmlns="http://www.w3.org/2000/svg">
<path d="M145.492 22H127.411C124.404 22 121.52 23.1946 119.394 25.3209C117.267 27.4473 116.073 30.3312 116.073 33.3384L116.072 67.4288C116.072 70.0824 115.141 72.6518 113.442 74.6899C111.743 76.7279 109.383 78.1053 106.772 78.5824L90.7075 81.5186C89.0808 81.8159 87.4089 81.7537 85.8087 81.3366C84.2085 80.9194 82.7187 80.1575 81.4442 79.1038C80.1696 78.0501 79.1411 76.7303 78.4305 75.237C77.7199 73.7438 77.3444 72.1132 77.3306 70.4596L77.021 33.3326C76.996 30.342 75.7904 27.4825 73.6669 25.3765C71.5434 23.2706 68.6736 22.0889 65.6829 22.0888H46.5075C43.5003 22.0888 40.6163 23.2833 38.4899 25.4097C36.3635 27.5361 35.1689 30.4202 35.1689 33.4274V158.661C35.1689 161.669 36.3635 164.553 38.4899 166.679C40.6163 168.805 43.5003 170 46.5075 170H66.1051C69.1122 170 71.9963 168.805 74.1227 166.679C76.2491 164.553 77.4436 161.669 77.4436 158.661V129.284C77.4436 126.607 78.3911 124.016 80.1177 121.97C81.8444 119.925 84.2388 118.556 86.8777 118.106L102.829 115.389C104.455 115.111 106.123 115.193 107.715 115.627C109.307 116.061 110.785 116.837 112.046 117.901C113.307 118.965 114.321 120.292 115.016 121.789C115.711 123.285 116.072 124.916 116.072 126.566V158.661C116.072 161.669 117.266 164.553 119.393 166.679C121.519 168.805 124.403 170 127.41 170H145.492C148.499 170 151.383 168.805 153.51 166.679C155.636 164.553 156.831 161.669 156.831 158.661V33.3386C156.831 30.3314 155.636 27.4473 153.51 25.3209C151.383 23.1945 148.499 22 145.492 22Z" stroke="black" stroke-width="12" stroke-linecap="round" stroke-linejoin="round"/>
</svg>

<svg xmlns="http://www.w3.org/2000/svg" width="192" height="192" fill="none"><path stroke="#000" stroke-linecap="round" stroke-linejoin="round" stroke-width="12" d="M145.492 22h-18.081a11.337 11.337 0 0 0-11.338 11.338l-.001 34.09a11.34 11.34 0 0 1-9.3 11.154L90.707 81.52a11.34 11.34 0 0 1-13.376-11.06l-.31-37.126a11.34 11.34 0 0 0-11.338-11.244H46.507A11.34 11.34 0 0 0 35.17 33.427v125.234A11.337 11.337 0 0 0 46.508 170h19.597a11.34 11.34 0 0 0 11.339-11.339v-29.377a11.34 11.34 0 0 1 9.434-11.178l15.951-2.717a11.341 11.341 0 0 1 13.243 11.177v32.095A11.335 11.335 0 0 0 127.41 170h18.082a11.343 11.343 0 0 0 11.339-11.339V33.339A11.34 11.34 0 0 0 145.492 22"/></svg>
